X: 26224
T: Meelick Team, The
R: jig
M: 6/8
K: Dmajor
|:dBA BAG|EDB, DEG|Eed BAG|ABd ege|
fBA BAG|EDB. DEG|Eef BAG|1 E2 A B2 e:|2 e3 z2 d||
|:e2 f gfe|beg fed|Beg beg|fed e2 f|
g2 f edB|AFD DFA|dcd fed|1 AFE D2 d:|2 AFE D3||

